X:1
T:Braes of Morven, The
T:Braes of Morven, The
T:Alexander Walker
C:Alexander Walker
L:1/8
M:2/2
K:Gmin
V:1 treble 
V:1
 F | DGGF G2 DB, | CEDB, A,FCA, | DGGF G2 DB, | CED^F GG,G, :| A | B>G G/G/G b2 ag | fdcB AFcA | %8
 BG G/G/G b2 ag | fdcA BGGA | BG G/G/G b2 ag | fdcB AFcA | BABc (dc)dg | bag^f g<GG || %14

